X:12
T:Diatonic Thirds Sequential
T: Version 2 (Advanced)
M:4/4
L:1/4
Q:1/4=80
K:C
   C  E  C/C/    E  | D  F  D/D/    F  | E  G   E/E/    G  | F  A  F/F/    A  |
w:do mi ma-jor third|re fa mi-nor third|mi sol mi-nor third|fa la ma-jor third|
    G  B  G/G/    B  | A  c  A/A/    c  | B  d  B/B/    d  | c4 ||
w:sol ti ma-jor third|la do mi-nor third|ti re mi-nor third| do ||

